svg/permissions.svg

<?xml version="1.0" encoding="UTF-8" standalone="no"?>
<svg
   width="25"
   height="25"
   viewBox="0 0 25 25"
   fill="none"
   version="1.1"
   id="svg2"
   sodipodi:docname="permissions.svg"
   inkscape:version="1.4 (86a8ad7, 2024-10-11)"
   xmlns:inkscape="http://www.inkscape.org/namespaces/inkscape"
   xmlns:sodipodi="http://sodipodi.sourceforge.net/DTD/sodipodi-0.dtd"
   xmlns="http://www.w3.org/2000/svg"
   xmlns:svg="http://www.w3.org/2000/svg">
  <defs
     id="defs2" />
  <sodipodi:namedview
     id="namedview2"
     pagecolor="#ffffff"
     bordercolor="#000000"
     borderopacity="0.25"
     inkscape:showpageshadow="2"
     inkscape:pageopacity="0.0"
     inkscape:pagecheckerboard="0"
     inkscape:deskcolor="#d1d1d1"
     inkscape:zoom="31.32"
     inkscape:cx="12.5"
     inkscape:cy="12.5"
     inkscape:window-width="1920"
     inkscape:window-height="1001"
     inkscape:window-x="-9"
     inkscape:window-y="-9"
     inkscape:window-maximized="1"
     inkscape:current-layer="svg2" />
  <g
     id="g2"
     transform="translate(0.27111,0.1433)">
    <path
       fill-rule="evenodd"
       clip-rule="evenodd"
       d="m 22.2289,7.07678 c 0,2.60682 -2.1219,4.72012 -4.7394,4.72012 -0.4777,0 -1.5652,-0.1098 -2.0942,-0.5489 l -0.6614,0.6586 c -0.3888,0.3873 -0.2838,0.5013 -0.1108,0.6891 0.0722,0.0784 0.1562,0.1696 0.2211,0.2988 0,0 0.5511,0.7684 0,1.5368 -0.3307,0.4391 -1.2565,1.0538 -2.3146,0 l -0.2205,0.2196 c 0,0 0.6613,0.7683 0.1102,1.5367 -0.3306,0.4391 -1.2124,0.8782 -1.9839,0.1098 l -0.77157,0.7684 c -0.52906,0.5269 -1.17566,0.2195 -1.43283,0 L 7.56968,16.4072 c -0.61723,-0.6147 -0.25717,-1.2807 0,-1.5368 L 13.3011,9.16239 c 0,0 -0.5511,-0.87815 -0.5511,-2.08561 0,-2.60683 2.1219,-4.72008 4.7395,-4.72008 2.6175,0 4.7394,2.11325 4.7394,4.72008 z m -3.086,-5e-5 c 0,0.90935 -0.7402,1.64653 -1.6533,1.64653 -0.9131,0 -1.6533,-0.73718 -1.6533,-1.64653 0,-0.90936 0.7402,-1.64654 1.6533,-1.64654 0.9131,0 1.6533,0.73718 1.6533,1.64654 z"
       fill="#2d2d2d"
       id="path1" />
    <path
       d="M 13.4246,2.35771 C 12.0939,3.49749 11.25,5.18734 11.25,7.07678 c 0,0.68118 0.1271,1.27695 0.2734,1.73898 L 6.51113,13.8076 c -0.29852,0.2973 -0.64295,0.8012 -0.74977,1.4547 -0.12219,0.7476 0.09452,1.5551 0.74977,2.2077 l 0.66132,0.6586 c 0.02718,0.0271 0.0554,0.0531 0.08458,0.078 0.29508,0.2519 0.77408,0.535 1.36903,0.623 0.66683,0.0985 1.44954,-0.0621 2.08834,-0.6932 0.386,0.0973 0.7803,0.1049 1.1604,0.0321 0.7541,-0.1444 1.3727,-0.5872 1.7427,-1.0785 0.007,-0.0093 0.0139,-0.0187 0.0207,-0.0282 0.1329,-0.1852 0.2345,-0.3722 0.3103,-0.5574 0.0968,-0.008 0.1938,-0.0212 0.2906,-0.0395 0.8618,-0.1635 1.4754,-0.696 1.8032,-1.1312 0.007,-0.0093 0.0139,-0.0187 0.0207,-0.0282 0.5283,-0.7365 0.5828,-1.5014 0.4868,-2.0808 0.3628,0.0527 0.6962,0.0722 0.9396,0.0722 1.8936,0 3.5931,-0.8421 4.7384,-2.1731 0.0011,0.3921 0.0011,0.8027 0.0011,1.2329 0,4.714 0,7.0711 -1.4645,8.5355 -1.4644,1.4645 -3.8215,1.4645 -8.5355,1.4645 -4.71407,0 -7.07109,0 -8.53555,-1.4645 -1.46447,-1.4644 -1.46447,-3.8215 -1.46447,-8.5355 0,-4.71405 0,-7.07107 1.46447,-8.53553 C 5.15781,2.3567 7.51483,2.3567 12.2289,2.3567 c 0.4166,0 0.8149,0 1.1957,0.00101 z"
       fill="#2d2d2d"
       id="path2" />
  </g>
</svg>

<svg width="25" height="25" viewBox="0 0 25 25" fill="none" xmlns="http://www.w3.org/2000/svg">
<path fill-rule="evenodd" clip-rule="evenodd" d="M22.2289 7.07678C22.2289 9.6836 20.107 11.7969 17.4895 11.7969C17.0118 11.7969 15.9243 11.6871 15.3953 11.248L14.7339 11.9066C14.3451 12.2939 14.4501 12.4079 14.6231 12.5957C14.6953 12.6741 14.7793 12.7653 14.8442 12.8945C14.8442 12.8945 15.3953 13.6629 14.8442 14.4313C14.5135 14.8704 13.5877 15.4851 12.5296 14.4313L12.3091 14.6509C12.3091 14.6509 12.9704 15.4192 12.4193 16.1876C12.0887 16.6267 11.2069 17.0658 10.4354 16.2974L9.66383 17.0658C9.13477 17.5927 8.48817 17.2853 8.231 17.0658L7.56968 16.4072C6.95245 15.7925 7.31251 15.1265 7.56968 14.8704L13.3011 9.16239C13.3011 9.16239 12.75 8.28424 12.75 7.07678C12.75 4.46995 14.8719 2.3567 17.4895 2.3567C20.107 2.3567 22.2289 4.46995 22.2289 7.07678ZM19.1429 7.07673C19.1429 7.98608 18.4027 8.72326 17.4896 8.72326C16.5765 8.72326 15.8363 7.98608 15.8363 7.07673C15.8363 6.16737 16.5765 5.43019 17.4896 5.43019C18.4027 5.43019 19.1429 6.16737 19.1429 7.07673Z" fill="#2D2D2D"/>
<path d="M13.4246 2.35771C12.0939 3.49749 11.25 5.18734 11.25 7.07678C11.25 7.75796 11.3771 8.35373 11.5234 8.81576L6.51113 13.8076C6.21261 14.1049 5.86818 14.6088 5.76136 15.2623C5.63917 16.0099 5.85588 16.8174 6.51113 17.47L7.17245 18.1286C7.19963 18.1557 7.22785 18.1817 7.25703 18.2066C7.55211 18.4585 8.03111 18.7416 8.62606 18.8296C9.29289 18.9281 10.0756 18.7675 10.7144 18.1364C11.1004 18.2337 11.4947 18.2413 11.8748 18.1685C12.6289 18.0241 13.2475 17.5813 13.6175 17.09C13.6245 17.0807 13.6314 17.0713 13.6382 17.0618C13.7711 16.8766 13.8727 16.6896 13.9485 16.5044C14.0453 16.4964 14.1423 16.4832 14.2391 16.4649C15.1009 16.3014 15.7145 15.7689 16.0423 15.3337C16.0493 15.3244 16.0562 15.315 16.063 15.3055C16.5913 14.569 16.6458 13.8041 16.5498 13.2247C16.9126 13.2774 17.246 13.2969 17.4894 13.2969C19.383 13.2969 21.0825 12.4548 22.2278 11.1238C22.2289 11.5159 22.2289 11.9265 22.2289 12.3567C22.2289 17.0707 22.2289 19.4278 20.7644 20.8922C19.3 22.3567 16.9429 22.3567 12.2289 22.3567C7.51483 22.3567 5.15781 22.3567 3.69335 20.8922C2.22888 19.4278 2.22888 17.0707 2.22888 12.3567C2.22888 7.64265 2.22888 5.28563 3.69335 3.82117C5.15781 2.3567 7.51483 2.3567 12.2289 2.3567C12.6455 2.3567 13.0438 2.3567 13.4246 2.35771Z" fill="#2D2D2D"/>
</svg>
